X: 29145
T: Nest, The
R: jig
M: 6/8
K: Gmajor
|:B3 AGd|BDB AGG|BdB AGd|edB AGA|
BGd AGG|BDD AGG|ded BGG|1 ADF G3:|2 ADF G2A||
|:Bdg edd|edg edd|Bdg edd|edG BAA|
Bdg edd|edg edd|ded BGG|1 ADF G3:|2 ADF G2A||

